X: 64
T: REELS: Rookery Set
T: Rookery
C: C: Vincent Broderick / James McMahon / Trad.; S: Various
C: Set Leaders: Oleg, Anton, Tania
Z: Oleg arr.; thomdecarlo / slainte / Connor Hickey at The Session
N: https://thesession.org/members/26966/sets/99683
R: Reel
M: 4/4
L: 1/8
Q: 1/2=100
K: Gmaj
|:"G"BGAG EGDG|EGDG "C"EGDE|"G/B"G2 Bd e2 dg|"C"e2 dg "D"edBA|
"Em"G2 GA B2 Bd|"C"e2 ed efga|"G/B"bgag "C"egge|"D"dBAc BG G2:||
|:"G"b2 gb a2 ga|b2 gb "C"aged|"G/B"G2 Bd e2 dg|"C"e2 dg "D"edBA|
"Em"G2 GA B2 Bd|"C"e2 ed efga|"G/B"bgag "C"egge|"D"d2 Ac BG G2:||
T: Banshee / McMahon's
K: Gmaj
|:"G"G3D EDB,D|"G"GFGB "D"d2 Bd|"C"eged BAGA|"C"BAGE "D"EDDE|
"G"G2 GD EDB,D|"G"GFGB "D"d2 Bd|"C"eged BAGA|1 "D"BAGE EDDE:|2 "D"BAGE ED D2||
|:"Am"eaag "D"efge|"G"dBBA "(D)"B2 Bd|"Em"eB ~B2 gB"D"fB|"Em"eBBA "D"B2 Bd|
"Am"eaag "D"efge|"G"dBBA "(D)"B2 Bd|"C (G)"eged "D/B"BAGA|1 "Am"BAGE "D"EDD2:|2 "Am (D)"BAGE "D"EDDE||
T: Rolling in the Ryegrass
K: Dmaj
|:"D"ABAF DFAF|"G"G2BG dGBG|"D"ABAF DFAF|"G"GBAF "A"E2 D2:||
|:"D"ABde f2 fd|"G"g2ge fedB|"D"ABde f2df|"A"afdf e2 d2:||

